source/symbols/subprocess-expanded.svg

<?xml version="1.0" encoding="UTF-8" standalone="no"?>
<!-- Created with Inkscape (http://www.inkscape.org/) -->

<svg
   xmlns:dc="http://purl.org/dc/elements/1.1/"
   xmlns:cc="http://creativecommons.org/ns#"
   xmlns:rdf="http://www.w3.org/1999/02/22-rdf-syntax-ns#"
   xmlns:svg="http://www.w3.org/2000/svg"
   xmlns="http://www.w3.org/2000/svg"
   xmlns:inkscape="http://www.inkscape.org/namespaces/inkscape"
   version="1.1"
   width="2048"
   height="2048"
   id="svg3891">
  <defs
     id="defs3893">
    <inkscape:path-effect
       effect="spiro"
       id="path-effect3840" />
    <inkscape:path-effect
       effect="spiro"
       id="path-effect3836" />
    <inkscape:path-effect
       effect="spiro"
       id="path-effect3836-9" />
  </defs>
  <metadata
     id="metadata3896">
    <rdf:RDF>
      <cc:Work
         rdf:about="">
        <dc:format>image/svg+xml</dc:format>
        <dc:type
           rdf:resource="http://purl.org/dc/dcmitype/StillImage" />
        <dc:title></dc:title>
      </cc:Work>
    </rdf:RDF>
  </metadata>
  <g
     transform="translate(0,995.63783)"
     id="layer1">
    <path
       d="m 1608.375,249 c -8.5667,0.01 -17.1644,-0.002 -25.7812,1.15625 l -1138.2813,0 C 252.55198,245.0401 83.520358,424.03191 100.125,615.125 c 0.29951,286.38864 -0.585795,572.8085 0.46875,859.1875 5.44575,187.9172 187.11316,340.6614 372.65625,323.3437 383.65828,0 767.3197,0.9654 1150.9688,0 185.204,-4.73 339.4893,-180.8301 323.6562,-364.5 -0.2898,-286.3886 0.5963,-572.80844 -0.4375,-859.18745 -4.4761,-176.36242 -164.8679,-324.68341 -339.0625,-324.5 l 0,-0.46875 z m -425.1562,151.46875 c 147.7787,-0.01 295.5585,6.6e-4 443.3124,1.0625 108.3578,6.27453 183.1461,114.52596 170.375,217.96875 -0.6279,285.53917 1.2886,571.1653 -0.9374,856.6562 -6.2762,108.2694 -114.6591,183.0115 -218.1876,170.25 -69.1058,-0.1735 -138.2025,-0.2068 -207.3124,-0.2187 l 0,-603.2187 0,-31.75 -31.75,0 -629.43755,0 -31.75,0 0,31.75 0,603.375 c -84.35848,-0.1402 -168.71424,-0.4191 -253.0625,-0.9063 -108.40493,-6.3711 -186.38129,-113.4954 -173.375,-218 0.65505,-285.5392 -1.33587,-571.16534 0.96875,-856.65625 7.60082,-96.43463 96.49786,-172.35208 192.25,-170.21875 246.28697,0.96531 492.60847,-0.0335 738.9063,-0.0625 l 0,-0.0312 z M 741,1074.7188 l 566,0 0,565.9374 -566,0 0,-565.9374 z m 75.125,230.7187 0,96.2187 415.75,0 0,-96.2187 -415.75,0 z"
       transform="translate(0,-995.63783)"
       id="rect3804"
       style="font-size:medium;font-style:normal;font-variant:normal;font-weight:normal;font-stretch:normal;text-indent:0;text-align:start;text-decoration:none;line-height:normal;letter-spacing:normal;word-spacing:normal;text-transform:none;direction:ltr;block-progression:tb;writing-mode:lr-tb;text-anchor:start;baseline-shift:baseline;color:#000000;fill:#000000;fill-opacity:1;stroke:none;stroke-width:1.55755734;marker:none;visibility:visible;display:inline;overflow:visible;enable-background:accumulate;font-family:Sans;-inkscape-font-specification:Sans" />
  </g>
</svg>

<?xml version="1.0" encoding="UTF-8" standalone="no"?>
<svg
   xmlns:dc="http://purl.org/dc/elements/1.1/"
   xmlns:cc="http://creativecommons.org/ns#"
   xmlns:rdf="http://www.w3.org/1999/02/22-rdf-syntax-ns#"
   xmlns:svg="http://www.w3.org/2000/svg"
   xmlns="http://www.w3.org/2000/svg"
   version="1.1"
   id="svg3891"
   height="2048"
   width="2048">
  <defs
     id="defs3893" />
  <metadata
     id="metadata3896">
    <rdf:RDF>
      <cc:Work
         rdf:about="">
        <dc:format>image/svg+xml</dc:format>
        <dc:type
           rdf:resource="http://purl.org/dc/dcmitype/StillImage" />
        <dc:title></dc:title>
      </cc:Work>
    </rdf:RDF>
  </metadata>
  <g
     transform="translate(0,995.63783)"
     id="layer1">
    <path
       transform="translate(0,-995.63783)"
       id="rect3804"
       d="M 1608.3691 249 C 1599.8024 249.01 1591.2106 248.99982 1582.5938 250.1582 L 444.32227 250.1582 C 252.56175 245.04205 83.524264 424.03972 100.12891 615.13281 C 100.42842 901.52146 99.543111 1187.9296 100.59766 1474.3086 C 106.04341 1662.2258 287.70691 1814.9759 473.25 1797.6582 C 856.90828 1797.6582 1240.5717 1798.6235 1624.2207 1797.6582 C 1809.4248 1792.9282 1963.714 1616.828 1947.8809 1433.1582 C 1947.5911 1146.7696 1948.4791 860.35167 1947.4453 573.97266 C 1942.9692 397.61024 1782.5657 249.28925 1608.3711 249.47266 L 1608.3691 249 z M 1183.2285 400.45703 C 1331.0072 400.44703 1478.7753 400.45769 1626.5293 401.51953 C 1734.8871 407.79406 1809.6813 516.07283 1796.9102 619.51562 C 1796.2822 905.0548 1798.1987 1190.6517 1795.9727 1476.1426 C 1789.6966 1584.4119 1681.3137 1659.1755 1577.7852 1646.4141 C 1508.6777 1646.2405 1439.5685 1646.1897 1370.457 1646.1777 L 1370.457 1048.9688 L 1370.457 1017.2246 L 1338.7129 1017.2246 L 709.28711 1017.2246 L 677.54297 1017.2246 L 677.54297 1048.9688 L 677.54297 1646.3418 C 593.18216 1646.2017 508.8252 1645.9364 424.47461 1645.4492 C 316.06968 1639.0782 238.09137 1531.9578 251.09766 1427.4531 C 251.75271 1141.9139 249.76179 856.28779 252.06641 570.79688 C 259.66723 474.36225 348.56817 398.43112 444.32031 400.56445 C 690.60728 401.52976 936.93074 400.52509 1183.2285 400.49609 L 1183.2285 400.45703 z M 741.01172 1080.7129 L 1306.9883 1080.7129 L 1306.9883 1646.1699 C 1118.3289 1646.224 929.66155 1646.601 741.01172 1646.4258 L 741.01172 1080.7129 z M 816.125 1305.4414 L 816.125 1401.6484 L 1231.873 1401.6484 L 1231.873 1305.4414 L 816.125 1305.4414 z "
       style="font-size:medium;font-style:normal;font-variant:normal;font-weight:normal;font-stretch:normal;text-indent:0;text-align:start;text-decoration:none;line-height:normal;letter-spacing:normal;word-spacing:normal;text-transform:none;direction:ltr;block-progression:tb;writing-mode:lr-tb;text-anchor:start;baseline-shift:baseline;color:#000000;fill:#000000;fill-opacity:1;stroke:none;stroke-width:1.55755734;marker:none;visibility:visible;display:inline;overflow:visible;enable-background:accumulate;font-family:Sans;-inkscape-font-specification:Sans" />
  </g>
</svg>
